X: 15867
T: Grace's
R: hornpipe
M: 4/4
K: Gmajor
(3DEF|GABG ABce|dgfa g2gf|egce dGB2|BAAG ADFA|
G2BG ABce|dgfa g2gf|edcB c2AF|DGFA G2(3def|
gzBG ABce|daaf g2gf|egce dGB2|BAAG ADFA|
G2BG ABce|dgfa g2gf|edcB cBAG|dzf2 g2ga||
bgdz afdf|gece d2(3def|ga (3gfe dBGB|(3cBA AG abga|
bgdz afdf|gece d2(3def|ga (3gfe dBGB|ADFA G2ga|
bgdz afdf|gece d2(3def|ga (3gfe dBG2|BAAG ADFA|
G2BG ABce|dgfa g2gf|edcB cBAG|D2F2 G4||

